X: 3098
T: Bear In The Buckwheat, The
R: reel
M: 4/4
K: Gmajor
|:c2BA BGG2|g2bg aAAB|c2BA Bcde|1 dBAB G4:|2 dBAB G2GE||
|:DB,DB, G2GF|ECEC E2GE|DB,DB, D2GA|1 BGAF G2GE:|2 BGAF G4||
|:c2BA BGG2|g2bg aAAB|c2BA Bcde|1 dBAB G4:|2 dBAB G2Ge||
|:dBdB d2gf|ecec e2ge|dBdB d2ga|1 bgaf g2ge:|2 bgaf g4||

